build/images/paw-modal.svg

<svg width="180" height="175" viewBox="0 0 180 175" fill="none" xmlns="http://www.w3.org/2000/svg">
<path d="M132.579 76.8048C110.399 78.8451 94.5944 50.5322 111.778 38.4999C119.19 33.3104 129.491 34.3704 137.316 39.4675C155.388 51.2401 151.625 75.0559 132.579 76.8048Z" fill="#FAC663" fill-opacity="0.15"/>
<path d="M114.018 84.9256C133.025 71.6163 161.235 99.7906 146.879 117.722C140.337 125.891 126.936 126.664 116.535 118.206C104.874 108.728 103.332 92.4078 114.018 84.9256Z" fill="#FAC663" fill-opacity="0.15"/>
<path d="M69.046 31.1041C66.9154 33.6795 62.5585 37.4283 57.702 40.9296C52.5714 44.6348 46.8852 48.0647 42.6956 49.5549C31.3687 53.5632 22.9234 68.9675 35.0161 80.2114C46.1969 90.6051 55.1191 83.3196 65.4583 93.3494C75.9007 103.491 88.5714 103.042 96.7316 96.6696C104.283 90.7708 107.969 79.7969 102.428 67.4591C96.5206 54.3141 106.403 48.442 100.46 34.3874C94.0326 19.1605 76.6658 21.8814 69.046 31.1041Z" fill="#FAC663" fill-opacity="0.15"/>
<path d="M80.5638 108.349C85.9403 104.584 92.7364 104.462 98.6364 107.427C116.178 116.245 117.376 144.619 100.135 150.435C78.3332 157.8 61.5666 121.651 80.5638 108.349Z" fill="#FAC663" fill-opacity="0.15"/>
<path d="M56.7961 92.6904C73.3172 103.295 71.5762 131.599 53.7558 135.555C32.2908 140.321 18.8313 105.476 37.1305 92.663C43.0031 88.551 50.516 88.6587 56.7961 92.6904Z" fill="#FAC663" fill-opacity="0.15"/>
</svg>

<svg width="180" height="175" fill="none" xmlns="http://www.w3.org/2000/svg"><path d="M132.579 76.805c-22.18 2.04-37.985-26.273-20.801-38.305 7.412-5.19 17.713-4.13 25.538.968 18.072 11.772 14.309 35.588-4.737 37.337zm-18.561 8.121c19.007-13.31 47.217 14.865 32.861 32.796-6.542 8.169-19.943 8.942-30.344.484-11.661-9.478-13.203-25.798-2.517-33.28z" fill="#FAC663" fill-opacity=".15"/><path d="M69.046 31.104c-2.13 2.575-6.488 6.324-11.344 9.826-5.13 3.705-10.817 7.135-15.006 8.625-11.327 4.008-19.773 19.413-7.68 30.656C46.196 90.605 55.12 83.32 65.458 93.35c10.443 10.142 23.113 9.693 31.274 3.32 7.551-5.898 11.237-16.872 5.696-29.21-5.907-13.145 3.975-19.017-1.968-33.072-6.427-15.227-23.794-12.506-31.414-3.283zm11.518 77.245c5.376-3.765 12.172-3.887 18.072-.922 17.542 8.818 18.74 37.192 1.499 43.008-21.802 7.365-38.568-28.784-19.571-42.086z" fill="#FAC663" fill-opacity=".15"/><path d="M56.796 92.69c16.521 10.605 14.78 38.909-3.04 42.865-21.465 4.766-34.925-30.079-16.626-42.892 5.873-4.112 13.386-4.004 19.666.027z" fill="#FAC663" fill-opacity=".15"/></svg>
